src/assets/filled/Receipt2.svg

<?xml version="1.0" encoding="UTF-8"?>
<svg width="24" height="24" viewBox="0 0 24 24" xmlns="http://www.w3.org/2000/svg">
 <path d="m19.5 3.67c0-0.01 0-0.02-0.02-0.03-0.22-0.28-0.51-0.43-0.85-0.43-0.53 0-1.17 0.35-1.86 1.09-0.82 0.88-2.08 0.81-2.8-0.15l-1.01-1.34c-0.4-0.54-0.93-0.81-1.46-0.81s-1.06 0.27-1.46 0.81l-1.02 1.35c-0.71 0.95-1.96 1.02-2.78 0.15l-0.01-0.01c-1.13-1.21-2.14-1.39-2.71-0.66-0.02 0.01-0.02 0.02-0.02 0.03-0.36 0.77-0.5 1.85-0.5 3.37v9.92c0 1.52 0.14 2.6 0.5 3.37 0 0.01 0.01 0.03 0.02 0.04 0.58 0.72 1.58 0.54 2.71-0.67l0.01-0.01c0.82-0.87 2.07-0.8 2.78 0.15l1.02 1.35c0.4 0.54 0.93 0.81 1.46 0.81s1.06-0.27 1.46-0.81l1.01-1.34c0.72-0.96 1.98-1.03 2.8-0.15 0.69 0.74 1.33 1.09 1.86 1.09 0.34 0 0.63-0.14 0.85-0.42 0.01-0.01 0.02-0.03 0.02-0.04 0.36-0.77 0.5-1.85 0.5-3.37v-9.92c0-1.52-0.14-2.6-0.5-3.37zm-5.5 10.83h-6c-0.41 0-0.75-0.34-0.75-0.75s0.34-0.75 0.75-0.75h6c0.41 0 0.75 0.34 0.75 0.75s-0.34 0.75-0.75 0.75zm2-3.5h-8c-0.41 0-0.75-0.34-0.75-0.75s0.34-0.75 0.75-0.75h8c0.41 0 0.75 0.34 0.75 0.75s-0.34 0.75-0.75 0.75z"/>
</svg>

<svg width="24" height="24" viewBox="0 0 24 24"  xmlns="http://www.w3.org/2000/svg">
<path d="M19.5 3.67C19.5 3.66 19.5 3.65 19.48 3.64C19.26 3.36 18.97 3.21 18.63 3.21C18.1 3.21 17.46 3.56 16.77 4.3C15.95 5.18 14.69 5.11 13.97 4.15L12.96 2.81C12.56 2.27 12.03 2 11.5 2C10.97 2 10.44 2.27 10.04 2.81L9.02 4.16C8.31 5.11 7.06 5.18 6.24 4.31L6.23 4.3C5.1 3.09 4.09 2.91 3.52 3.64C3.5 3.65 3.5 3.66 3.5 3.67C3.14 4.44 3 5.52 3 7.04V16.96C3 18.48 3.14 19.56 3.5 20.33C3.5 20.34 3.51 20.36 3.52 20.37C4.1 21.09 5.1 20.91 6.23 19.7L6.24 19.69C7.06 18.82 8.31 18.89 9.02 19.84L10.04 21.19C10.44 21.73 10.97 22 11.5 22C12.03 22 12.56 21.73 12.96 21.19L13.97 19.85C14.69 18.89 15.95 18.82 16.77 19.7C17.46 20.44 18.1 20.79 18.63 20.79C18.97 20.79 19.26 20.65 19.48 20.37C19.49 20.36 19.5 20.34 19.5 20.33C19.86 19.56 20 18.48 20 16.96V7.04C20 5.52 19.86 4.44 19.5 3.67ZM14 14.5H8C7.59 14.5 7.25 14.16 7.25 13.75C7.25 13.34 7.59 13 8 13H14C14.41 13 14.75 13.34 14.75 13.75C14.75 14.16 14.41 14.5 14 14.5ZM16 11H8C7.59 11 7.25 10.66 7.25 10.25C7.25 9.84 7.59 9.5 8 9.5H16C16.41 9.5 16.75 9.84 16.75 10.25C16.75 10.66 16.41 11 16 11Z" />
</svg>
